X:1
T:Suite Nro 1, en Sol mayor, para Cello, BWV 1007, parte 1 Prelude
T:Suite Nro 1, en Sol Mayor, para Cello Solista
T:Parte 1 - Preludio
C:Johann Sebastian Bach (1685-1750)
L:1/8
Q:1/4=70
M:4/4
K:G
V:1 bass nm="Violonchelo, Solo Cello" snm="Vlc."
V:1
 G,,/D,/B,/A,/ B,/D,/B,/D,/ G,,/D,/B,/A,/ B,/D,/B,/D,/ | %1
 G,,/E,/C/B,/ C/E,/C/E,/ G,,/E,/C/B,/ C/E,/C/E,/ | %2
 G,,/F,/C/B,/ C/F,/C/F,/ G,,/F,/C/B,/ C/F,/C/F,/ | %3
 G,,/G,/B,/A,/ B,/G,/B,/G,/ G,,/G,/B,/A,/ B,/G,/B,/F,/ | %4
 G,,/E,/B,/A,/ B,/G,/F,/G,/ E,/G,/F,/G,/ B,,/D,/^C,/B,,/ | %5
 ^C,/G,/A,/G,/ A,/G,/A,/G,/ C,/G,/A,/G,/ A,/G,/A,/G,/ | %6
 F,/A,/D/^C/ D/A,/G,/A,/ F,/A,/G,/A,/ D,/F,/E,/D,/ | %7
 E,,/B,,/G,/F,/ G,/B,,/G,/B,,/ E,,/B,,/G,/F,/ G,/B,,/G,/B,,/ | %8
 E,,/^C,/D,/E,/ D,/C,/B,,/A,,/ G,/F,/E,/D/ ^C/B,/A,/G,/ | %9
 F,/E,/D,/D/ A,/D/F,/A,/ D,/E,/F,/A,/ G,/F,/E,/D,/ | %10
 ^G,/D,/=F,/E,/ F,/D,/G,/D,/ B,/D,/F,/E,/ F,/D,/G,/D,/ | %11
 C,/E,/A,/B,/ C/A,/E,/D,/ C,/E,/A,/B,/ C/A,/F,/E,/ | %12
 ^D,/F,/D,/F,/ A,/F,/A,/F,/ D,/F,/D,/F,/ A,/F,/A,/F,/ | %13
 G,/F,/E,/G,/ F,/G,/A,/F,/ G,/F,/E,/D,/ C,/B,,/A,,/G,,/ | %14
 F,,/C,/D,/C,/ D,/C,/D,/C,/ F,,/C,/D,/C,/ D,/C,/D,/C,/ | %15
 G,,/B,,/=F,/E,/ F,/B,,/F,/B,,/ G,,/B,,/F,/E,/ F,/B,,/F,/B,,/ | %16
 G,,/C,/E,/D,/ E,/C,/E,/C,/ G,,/C,/E,/D,/ E,/C,/E,/C,/ | %17
 G,,/F,/C/B,/ C/F,/C/F,/ G,,/F,/C/B,/ C/F,/C/F,/ | %18
 G,,/D,/B,/A,/ B,/G,/F,/E,/ D,/C,/B,,/A,,/ G,,/F,,/E,,/D,,/ | %19
 ^C,,/A,,/E,/F,/ G,/E,/F,/G,/ C,,/A,,/E,/F,/ G,/E,/F,/G,/ | %20
 C,,/A,,/D,/E,/ F,/D,/E,/F,/ C,,/A,,/D,/E,/ F,/D,/E,/F,/ | %21
 C,,/A,,/D,/F,/ A,/^C/!fermata!D- D/A,,/B,,/C,/ D,/E,/F,/G,/ | %22
 A,/F,/D,/E,/ F,/G,/A,/B,/ C/A,/F,/G,/ A,/B,/C/D/ | %23
 ^D/=D/^C/D/ D/=C/B,/C/ C/A,/F,/E,/ D,/A,,/B,,/C,/ | %24
 D,,/A,,/D,/F,/ A,/B,/C/A,/ B,/G,/D,/C,/ B,,/G,,/A,,/B,,/ | %25
 D,,/G,,/B,,/D,/ G,/A,/B,/G,/ ^C/B,/A,/_B,/ B,/A,/^G,/A,/ | %26
 A,/G,/F,/G,/ G,/E,/^C,/B,,/ A,,/C,/E,/G,/ A,/^C/D/C/ | %27
 D/A,/F,/E,/ F,/A,/D,/F,/ A,,/D,/^C,/B,,/ A,,/G,,/F,,/E,,/ | %28
 !fermata!D,,C/B,/ A,/G,/F,/E,/ D,/C/B,/A,/ G,/F,/E,/D,/ | %29
 C,/B,/A,/G,/ F,/E,/D,/C,/ B,,/A,/G,/F,/ E,/D,/C,/B,,/ | %30
 A,,/G,/F,/E,/ F,/A,/D,/A,/ E,/A,/F,/A,/ G,/A,/E,/A,/ | %31
 F,/A,/D,/A,/ G,/A,/E,/A,/ F,/A,/D,/A,/ G,/A,/E,/A,/ | %32
 F,/A,/D,/A,/ E,/A,/F,/A,/ G,/A,/A,/A,/ B,/A,/D,/A,/ | %33
 A,/A,/B,/A,/ C/A,/D,/A,/ B,/A,/C/A,/ D/A,/B,/A,/ | %34
 C/A,/B,/A,/ C/A,/A,/A,/ B,/A,/A,/A,/ B,/A,/G,/A,/ | %35
 A,/A,/G,/A,/ A,/A,/F,/A,/ G,/A,/F,/A,/ G,/A,/E,/A,/ | %36
 F,/A,/D,/E,/ =F,/D,/^F,/D,/ G,/D,/^G,/D,/ A,/D,/_B,/D,/ | %37
 B,/D,/C/D,/ ^C/D,/D/D,/ ^D/D,/E/D,/ =F/D,/^F/D,/ | G/B,/D,/B,/ G/B,/G/B,/ G/B,/D,/B,/ G/B,/G/B,/ | %39
 G/A,/D,/A,/ G/A,/G/A,/ G/A,/D,/A,/ G/A,/G/A,/ | F/C/D,/C/ F/C/F/C/ F/C/D,/C/ F/C/F/C/ | %41
 [G,,B,G]8 |] %42

